brandFactory_export/1.Light/Recarga Online_1Light.svg

<?xml version="1.0" encoding="UTF-8"?>
<svg width="24px" height="24px" viewBox="0 0 24 24" version="1.1" xmlns="http://www.w3.org/2000/svg" xmlns:xlink="http://www.w3.org/1999/xlink">
    <title>1.Light/Recarga Online_1Light</title>
    <g id="Symbols" stroke="none" stroke-width="1" fill="none" fill-rule="evenodd">
        <g id="1.Light/Recarga-Online_1Light" fill="#5CB615" fill-rule="nonzero">
            <path d="M23.2773109,19.7983193 C23.4621849,19.7983193 23.6134454,19.9495798 23.6134454,20.1344538 C23.6134454,20.3193277 23.4621849,20.4705882 23.2773109,20.4705882 L0.336134454,20.4705882 C0.151260505,20.4705882 3.06808801e-10,20.3193277 3.06808801e-10,20.1344538 C3.06808801e-10,19.9495798 0.151260505,19.7983193 0.336134454,19.7983193 L23.2773109,19.7983193 Z M20.010084,4.02689076 C21.2268908,4.02689076 22.1512605,4.37983193 22.7596639,5.07563025 C23.3310924,5.73109244 23.6235294,6.69915966 23.6235294,7.95294118 L23.6235294,13.8789916 C23.6235294,15.1327731 23.3344538,16.1008403 22.7596639,16.7563025 C22.1512605,17.4554622 21.2268908,17.8084034 20.010084,17.8084034 L3.62352941,17.8084034 C2.40672269,17.8084034 1.48235294,17.4554622 0.87394958,16.7596639 C0.299159664,16.1008403 0.0100840339,15.1327731 0.0100840339,13.8789916 L0.0100840339,7.95294118 C0.0100840339,6.69915966 0.299159664,5.73109244 0.87394958,5.07563025 C1.48235294,4.37983193 2.40672269,4.02689076 3.62352941,4.02689076 L20.010084,4.02689076 Z M20.010084,4.69915966 L3.62352941,4.69915966 C1.61680672,4.69915966 0.682352941,5.73445378 0.682352941,7.95630252 L0.682352941,13.8823529 C0.682352941,16.1042017 1.61680672,17.1394958 3.62352941,17.1394958 L20.010084,17.1394958 C22.0168067,17.1394958 22.9512605,16.1042017 22.9512605,13.8823529 L22.9512605,7.95294118 C22.9512605,5.73109244 22.0168067,4.69915966 20.010084,4.69915966 Z M15.092437,7.65714286 C15.2605042,7.6907563 15.589916,7.78151261 16.1344538,7.93277311 L16.4168067,8.01008403 C16.594958,8.0605042 16.6991597,8.24537815 16.6521008,8.42352941 C16.605042,8.60168067 16.4168067,8.70588235 16.2386555,8.65882353 L15.9563025,8.58151261 C15.7966387,8.53739496 15.6537159,8.4978729 15.5282522,8.46345933 C15.948002,9.12330646 16.1579832,9.97116713 16.1579832,10.994958 C16.1579832,12.3764706 15.7714286,13.4420168 15.0151261,14.1546218 C14.2857143,14.8403361 13.2268908,15.1865546 11.8689076,15.1865546 C11.1932773,15.1865546 10.5848739,15.0991597 10.0638655,14.9277311 C9.88907563,14.8638655 9.79831933,14.6722689 9.86218487,14.497479 C9.92268908,14.3294118 10.1042017,14.2386555 10.2756303,14.2890756 C10.7294118,14.4369748 11.2672269,14.5142857 11.8722689,14.5142857 C13.0554622,14.5142857 13.9563025,14.2285714 14.5579832,13.6638655 C15.1764706,13.0823529 15.4890756,12.1848739 15.4890756,10.994958 C15.4890756,9.95299634 15.2477625,9.13378528 14.7722022,8.55616751 C14.74643,8.70214062 14.7226012,8.87469655 14.702521,9.04537815 C14.6722689,9.28403361 14.6386555,9.52941176 14.5983193,9.7210084 C14.5647059,9.87563025 14.4268908,9.98655462 14.2689076,9.98655462 C14.0840336,9.98655462 13.9327731,9.83529412 13.9327731,9.65042017 C13.9327731,9.62689076 13.9361345,9.60336134 13.9394958,9.57983193 C13.9731092,9.41848739 14.0033613,9.18319328 14.0336134,8.96134454 C14.0638655,8.71932773 14.097479,8.47058824 14.1378151,8.28235294 C14.2420168,7.79495798 14.6016807,7.55966387 15.092437,7.65714286 Z M11.7478992,6.64537815 C12.4235294,6.64537815 13.0285714,6.73277311 13.5529412,6.90084034 C13.7277311,6.96470588 13.8184874,7.15630252 13.7546218,7.33109244 C13.6941176,7.49579832 13.5159664,7.58991597 13.3445378,7.5394958 C12.8907563,7.39159664 12.3529412,7.31428571 11.7478992,7.31428571 C10.5647059,7.31428571 9.66386555,7.6 9.06218487,8.16470588 C8.44369748,8.74621849 8.13109244,9.64369748 8.13109244,10.8336134 C8.13109244,11.8704675 8.3700456,12.6867494 8.84098932,13.2638923 C8.8656148,13.1222728 8.88831169,12.9569137 8.90756303,12.7932773 C8.93781513,12.5546218 8.97142857,12.3092437 9.01176471,12.1210084 C9.05546219,11.9394958 9.23697479,11.8285714 9.41512605,11.8722689 C9.58991597,11.912605 9.70084034,12.087395 9.66722689,12.2621849 C9.63361345,12.4235294 9.60336134,12.6554622 9.57310924,12.8806723 C9.54285714,13.1226891 9.5092437,13.3714286 9.46890756,13.5596639 C9.38487395,13.9663866 9.11260504,14.1983193 8.73277311,14.1983193 C8.66218487,14.1983193 8.59159664,14.1915966 8.5210084,14.1781513 C8.35294118,14.1445378 8.02352941,14.0537815 7.4789916,13.902521 L7.19663866,13.8252101 C7.01512605,13.7848739 6.90084034,13.6067227 6.94117647,13.4252101 C6.98151261,13.2436975 7.15966387,13.1294118 7.34117647,13.1697479 C7.3512605,13.1731092 7.36470588,13.1764706 7.37478992,13.1798319 L7.65714286,13.2571429 C7.82082098,13.3023697 7.96690564,13.342767 8.09451274,13.3777821 C7.67073951,12.716417 7.45882353,11.8654715 7.45882353,10.8369748 C7.45882353,9.45546218 7.84201681,8.38991597 8.60168067,7.67731092 C9.33109244,6.99159664 10.389916,6.64537815 11.7478992,6.64537815 Z" id="Recarga-Online_1Light"></path>
        </g>
    </g>
</svg>

<svg width="24" height="24" viewBox="0 0 24 24" xmlns="http://www.w3.org/2000/svg"><path d="M23.277 19.798c.185 0 .336.152.336.336a.337.337 0 01-.336.337H.337A.337.337 0 010 20.134c0-.184.151-.336.336-.336h22.941zM20.01 4.027c1.217 0 2.141.353 2.75 1.049.571.655.864 1.623.864 2.877v5.926c0 1.254-.29 2.222-.864 2.877-.609.7-1.533 1.052-2.75 1.052H3.624c-1.217 0-2.142-.353-2.75-1.048C.299 16.1.01 15.133.01 13.879V7.953c0-1.254.29-2.222.864-2.877.608-.696 1.533-1.05 2.75-1.05H20.01zm0 .672H3.624C1.617 4.7.682 5.734.682 7.956v5.926c0 2.222.935 3.257 2.942 3.257H20.01c2.007 0 2.941-1.035 2.941-3.257v-5.93c0-2.22-.934-3.253-2.94-3.253zm-4.918 2.958c.169.034.498.125 1.042.276l.283.077a.34.34 0 01.235.414.338.338 0 01-.413.235l-.283-.077-.428-.119c.42.66.63 1.508.63 2.532 0 1.381-.387 2.447-1.143 3.16-.73.685-1.788 1.032-3.146 1.032-.676 0-1.284-.088-1.805-.26a.335.335 0 01-.202-.43.338.338 0 01.414-.208c.453.148.991.225 1.596.225 1.183 0 2.084-.285 2.686-.85.618-.582.931-1.48.931-2.669 0-1.042-.241-1.861-.717-2.439-.026.146-.05.319-.07.49a9.07 9.07 0 01-.104.675.337.337 0 01-.666-.07c0-.024.004-.048.007-.071.034-.162.064-.397.095-.619.03-.242.063-.49.104-.679.104-.487.464-.722.954-.625zm-3.344-1.012c.676 0 1.28.088 1.805.256a.335.335 0 01-.208.638c-.454-.147-.992-.225-1.597-.225-1.183 0-2.084.286-2.686.85-.618.582-.93 1.48-.93 2.67 0 1.036.238 1.853.709 2.43.025-.142.047-.307.067-.47a8.7 8.7 0 01.104-.673.335.335 0 01.655.141c-.033.162-.064.393-.094.619-.03.242-.064.49-.104.679-.084.406-.356.638-.736.638a1.13 1.13 0 01-.212-.02 20.512 20.512 0 01-1.042-.275l-.282-.078a.335.335 0 11.144-.655c.01.003.024.006.034.01l.282.077c.164.045.31.086.438.12-.424-.66-.636-1.512-.636-2.54 0-1.382.383-2.447 1.143-3.16.73-.685 1.788-1.032 3.146-1.032z" fill="#5CB615" fill-rule="nonzero"/></svg>
